X: 41
T: Audi benigne conditor
N: Derived from Mar2003-Audi_benigne_conditor.krn
C: Johannes Martini
%%abc-version 2.0
%%abcx-abcm2ps-target-version 5.9.1 (29 Sep 2008)
%%abc-creator hum2abc beta
%%abcx-conversion-date 2019/02/17 07:19:41
%%abc-edited-by Jesse Rodin
%%abc-edited-by Chris Gage 07-31-2014
%%abcx-initial-encoding-date 2014/10/05/
%%humdrum-veritas 1869094383
%%humdrum-veritas-data 1118468732
%%linebreak <none>
%%barnumbers 0
L: 1/4
M: 4/2
Q: 1/2=120
V: 1 clef=treble
V: 2 clef=treble-8
V: 3 clef=bass
K: C
[V:1] D4D2E2 | 
[V:2] A6B2 | 
[V:3] D,4F,2G,2 | 
[V:1] F4F2E2 | 
[V:2] c8 | 
[V:3] A,8 | 
[V:1] D2E3DCB, | 
[V:2] G2C4F2- | 
[V:3] B,2C2A,3G, | 
[V:1] A,2D4^C2 | 
[V:2] FGA4G2 | 
[V:3] A,2F,2E,4 | 
[V:1] D4z2F2 | 
[V:2] A4D4 | 
[V:3] D,4D4 | 
[V:1] E2F2G4 | 
[V:2] A2F2E4 | 
[V:3] C2A,2B,4 | 
[V:1] F4E2D2- | 
[V:2] z2c2B3A | 
[V:3] A,4G,3F, | 
[V:1] D2C4B,2 | 
[V:2] B2G4F2 | 
[V:3] G,2E,2D,4 | 
[V:1] C4D3E | 
[V:2] G4D4 | 
[V:3] C,4z4 | 
[V:1] F4F4 | 
[V:2] z2d4cB | 
[V:3] D,4F,3G, | 
[V:1] E4D3E | 
[V:2] c4d2G2 | 
[V:3] A,4B,4 | 
[V:1] F2G4^F2 | 
[V:2] F2E2D4 | 
[V:3] A,2G,2A,4 | 
[V:1] G4z4 | 
[V:2] z2d2e3d | 
[V:3] G,4E,3F, | 
[V:1] E3FG4 | 
[V:2] B4c4 | 
[V:3] G,4E,4 | 
[V:1] F2D2E2F2- | 
[V:2] d4B2c2- | 
[V:3] D,2F,2G,2A,2- | 
[V:1] F2EDC2D2- | 
[V:2] c2BAG2A2- | 
[V:3] A,2G,F,E,2D,2 | 
[V:1] D2^C2D4 ||  
[V:2] A2G2A4 ||  
[V:3] E,4D,4 ||  
[V:1] D4C4 | 
[V:2] D4A4- | 
[V:3] z8 | 
[V:1] D2F2E4 | 
[V:2] A2B2c3B | 
[V:3] D,4C,4 | 
[V:1] F2D2E3F | 
[V:2] A4G4 | 
[V:3] D,2F,2E,4 | 
[V:1] D4C4 | 
[V:2] A2F2G2c2- | 
[V:3] F,2D,2E,2F,2 | 
[V:1] D2F2E2G2 | 
[V:2] c2B2c3A | 
[V:3] D,4C,4 | 
[V:1] F2D4^C2 | 
[V:2] B2A4G2 | 
[V:3] D,2F,2E,4 | 
[V:1] D4z4 | 
[V:2] A4B2A2 | 
[V:3] D,8 | 
[V:1] F4E4 | 
[V:2] d4c2A2- | 
[V:3] z8 | 
[V:1] F4G4 | 
[V:2] ABcde4 | 
[V:3] F,4E,4 | 
[V:1] F2D2E2F2- | 
[V:2] A4B2c2- | 
[V:3] F,4G,2A,2- | 
[V:1] FEE4D2 | 
[V:2] cBB4A2 | 
[V:3] A,2G,2F,4 | 
[V:1] E4D4 | 
[V:2] B6G2- | 
[V:3] E,4z4 | 
[V:1] E2F2D4 | 
[V:2] G2A4F2 | 
[V:3] z4D,4 | 
[V:1] C4z4 | 
[V:2] G2c4B2 | 
[V:3] E,2F,2D,4 | 
[V:1] z2C2D2E2 | 
[V:2] c2A2B2c2 | 
[V:3] C,4z2C,2 | 
[V:1] F4z2D2 | 
[V:2] A4D4 | 
[V:3] D,2E,2F,4- | 
[V:1] E2F2G4 | 
[V:2] A4G2A2 | 
[V:3] F,2D,2E,2F,2 | 
[V:1] D4z2A2 | 
[V:2] B2G4F2 | 
[V:3] G,4D,4 | 
[V:1] B2G4^F2 | 
[V:2] E2G2D4 | 
[V:3] G,2B,2A,4 | 
[V:1] G4z4 | 
[V:2] d4B4 | 
[V:3] G,8 | 
[V:1] E4F4 | 
[V:2] c2A4d2 | 
[V:3] z8 | 
[V:1] E4D2A2- | 
[V:2] e2g2f2d2- | 
[V:3] E,4F,4 | 
[V:1] A2G2F2ED | 
[V:2] d2c2d2cB | 
[V:3] E,4D,2A,2- | 
[V:1] C2D2F2E2- | 
[V:2] A2G2c2B2- | 
[V:3] A,2B,2A,2G,2- | 
[V:1] EDD4^C2 | 
[V:2] BAA4G2 | 
[V:3] G,2F,2E,4 | 
[V:1] D8 |]  
[V:2] A8 |]  
[V:3] D,8 |]  



